public/iconset/Tags.svg

<?xml version="1.0" encoding="UTF-8"?>
<svg width="24px" height="24px" viewBox="0 0 24 24" version="1.1" xmlns="http://www.w3.org/2000/svg" xmlns:xlink="http://www.w3.org/1999/xlink">
    <!-- Generator: Sketch 48.1 (47250) - http://www.bohemiancoding.com/sketch -->
    <title>24x24</title>
    <desc>Created with Sketch.</desc>
    <defs></defs>
    <g id="Page-1" stroke="none" stroke-width="1" fill="none" fill-rule="evenodd">
        <g id="Tags">
            <rect id="24x24" x="0" y="0" width="24" height="24"></rect>
            <path d="M17,15.27 L9.67,15.27 C9.23725957,15.27 8.81619234,15.1296443 8.47,14.87 L5.8,12.87 C5.29638831,12.4922912 5,11.8995146 5,11.27 L5,9.27 C5,8.64048539 5.29638831,8.04770876 5.8,7.67 L8.47,5.67 C8.81815316,5.41412025 9.23794962,5.27418809 9.67,5.27 L17,5.27 C18.1045695,5.27 19,6.1654305 19,7.27 L19,13.27 C19,14.3745695 18.1045695,15.27 17,15.27 Z M9.67,6.27 C9.45362979,6.27 9.24309617,6.34017787 9.07,6.47 L6.4,8.47 C6.14819416,8.65885438 6,8.9552427 6,9.27 L6,11.27 C6,11.5847573 6.14819416,11.8811456 6.4,12.07 L9.07,14.07 C9.24309617,14.1998221 9.45362979,14.27 9.67,14.27 L17,14.27 C17.5522847,14.27 18,13.8222847 18,13.27 L18,7.27 C18,6.71771525 17.5522847,6.27 17,6.27 L9.67,6.27 Z M16.62,16.27 L15.92,17.72 L12.83,16.27 L10.48,16.27 L15.48,18.63 C15.6184523,18.6925749 15.768102,18.7265862 15.92,18.73 C16.3046594,18.7289111 16.6545973,18.5072838 16.82,18.16 L17.72,16.27 L16.62,16.27 Z M10,12.27 C8.8954305,12.27 8,11.3745695 8,10.27 C8,9.1654305 8.8954305,8.27 10,8.27 C11.1045695,8.27 12,9.1654305 12,10.27 C12,11.3745695 11.1045695,12.27 10,12.27 Z M10,9.27 C9.44771525,9.27 9,9.71771525 9,10.27 C9,10.8222847 9.44771525,11.27 10,11.27 C10.5522847,11.27 11,10.8222847 11,10.27 C11,9.71771525 10.5522847,9.27 10,9.27 Z" id="Shape" fill="#000000" fill-rule="nonzero"></path>
        </g>
    </g>
</svg>

<svg id="target" xmlns="http://www.w3.org/2000/svg" viewBox="0 0 24 24"><title>Tags</title><path d="M17,15.27H9.67a2,2,0,0,1-1.2-.4l-2.67-2a2,2,0,0,1-.8-1.6v-2a2,2,0,0,1,.8-1.6l2.67-2a2.06,2.06,0,0,1,1.2-.4H17a2,2,0,0,1,2,2v6A2,2,0,0,1,17,15.27Zm-7.33-9a1,1,0,0,0-.6.2l-2.67,2a1,1,0,0,0-.4.8v2a1,1,0,0,0,.4.8l2.67,2a1,1,0,0,0,.6.2H17a1,1,0,0,0,1-1v-6a1,1,0,0,0-1-1Z"/><path d="M10,12.27a2,2,0,1,1,2-2A2,2,0,0,1,10,12.27Zm0-3a1,1,0,1,0,1,1A1,1,0,0,0,10,9.27Z"/><path d="M16.62,16.27l-.7,1.45-3.09-1.45H10.48l5,2.36a1.13,1.13,0,0,0,.44.1,1,1,0,0,0,.9-.57l.9-1.89Z"/></svg>
